rospo-dark/16x16/actions/media-view-subtitles.svg

<?xml version="1.0" encoding="UTF-8" standalone="no"?>
<svg xmlns="http://www.w3.org/2000/svg" width="22" height="22" viewBox="0 0 22 22">
 <defs>
  <style type="text/css" id="current-color-scheme">
   .ColorScheme-Text { color:#d3dae3; } .ColorScheme-Highlight { color:#5294e2; }
  </style>
 </defs>
 <path style="fill:currentColor;opacity:1" class="ColorScheme-Text" transform="translate(3 3)" d="M 2 3.0351562 C 1.446 3.0351562 1 3.4811562 1 4.0351562 L 1 12.035156 C 1 12.589156 1.446 13.035156 2 13.035156 L 14 13.035156 C 14.554 13.035156 15 12.589156 15 12.035156 L 15 4.0351562 C 15 3.4811562 14.554 3.0351562 14 3.0351562 L 2 3.0351562 z M 3 8.0351562 L 5 8.0351562 L 5 9.0351562 L 3 9.0351562 L 3 8.0351562 z M 6 8.0351562 L 10 8.0351562 L 10 9.0351562 L 6 9.0351562 L 6 8.0351562 z M 11 8.0351562 L 13 8.0351562 L 13 9.0351562 L 11 9.0351562 L 11 8.0351562 z M 3 10.035156 L 4 10.035156 L 4 11.035156 L 3 11.035156 L 3 10.035156 z M 5 10.035156 L 9 10.035156 L 9 11.035156 L 5 11.035156 L 5 10.035156 z M 10 10.035156 L 13 10.035156 L 13 11.035156 L 10 11.035156 L 10 10.035156 z"/>
</svg>

<svg height="16" viewBox="0 0 16 16" width="16" xmlns="http://www.w3.org/2000/svg"><path d="m2 3.0351562c-.554 0-1 .446-1 1v7.9999998c0 .554.446 1 1 1h12c .554 0 1-.446 1-1v-7.9999998c0-.554-.446-1-1-1zm1 5h2v1h-2zm3 0h4v1h-4zm5 0h2v1h-2zm-8 1.9999998h1v1h-1zm2 0h4v1h-4zm5 0h3v1h-3z" fill="#d3dae3"/></svg>
